public/images/small_logo.svg

<?xml version="1.0" encoding="UTF-8"?>
<svg width="200px" height="124px" viewBox="0 0 200 124" version="1.1" xmlns="http://www.w3.org/2000/svg" xmlns:xlink="http://www.w3.org/1999/xlink">
    <!-- Generator: Sketch 48.2 (47327) - http://www.bohemiancoding.com/sketch -->
    <title>Group 2</title>
    <desc>Created with Sketch.</desc>
    <defs></defs>
    <g id="Home-Page-Desktop" stroke="none" stroke-width="1" fill="none" fill-rule="evenodd" transform="translate(-135.000000, -2017.000000)">
        <g id="Footer" transform="translate(0.000000, 1962.000000)" fill="#FFFFFF">
            <g id="Group-2" transform="translate(135.000000, 55.000000)">
                <g id="Group" fill-rule="nonzero">
                    <polygon id="Shape" points="85.2837573 84.4618395 85.2837573 21.9178082 69.667319 21.9178082 53.3855186 54.5988258 37.1819961 21.9178082 21.5264188 21.9178082 21.5264188 84.4618395 35.9686888 84.4618395 35.9686888 47.0450098 49.5107632 74.2465753 57.260274 74.2465753 70.8414873 47.0450098 70.8414873 84.4618395"></polygon>
                    <polygon id="Shape" points="97.260274 21.9178082 97.260274 84.4618395 141.996086 84.4618395 141.996086 71.7808219 111.702544 71.7808219 111.702544 21.9178082"></polygon>
                    <path d="M175.616438,51.7808219 L175.616438,62.2700587 L187.78865,62.2700587 L187.78865,64.2270059 C183.248532,69.4716243 178.199609,72.0547945 172.563601,72.0547945 C170.097847,72.0547945 167.866928,71.5851272 165.831703,70.6457926 C163.796477,69.7064579 162.074364,68.4148728 160.587084,66.7318982 C159.099804,65.0489237 157.964775,63.0919765 157.142857,60.7827789 C156.320939,58.4735812 155.92955,56.0078278 155.92955,53.3072407 C155.92955,50.6457926 156.320939,48.1800391 157.064579,45.9099804 C157.808219,43.6007828 158.90411,41.6046967 160.313112,39.8825832 C161.722114,38.1604697 163.405088,36.7906067 165.362035,35.8121331 C167.318982,34.8336595 169.510763,34.3639922 171.937378,34.3639922 C175.029354,34.3639922 177.925636,35.146771 180.626223,36.7123288 C183.287671,38.2778865 185.322896,40.4696673 186.731898,43.2876712 L197.495108,35.18591 C195.303327,30.9589041 192.054795,27.6320939 187.710372,25.2054795 C183.365949,22.778865 178.277886,21.5655577 172.485323,21.5655577 C168.101761,21.5655577 163.953033,22.3874755 160.156556,24.0313112 C156.320939,25.6751468 153.033268,27.9060665 150.254403,30.7240705 C147.475538,33.5420744 145.283757,36.8688845 143.679061,40.665362 C142.074364,44.5009785 141.291585,48.5322896 141.291585,52.7984344 C141.291585,57.5342466 142.074364,61.9178082 143.679061,65.8708415 C145.244618,69.8238748 147.436399,73.2289628 150.136986,76.0469667 C152.876712,78.8649706 156.046967,81.0567515 159.686888,82.6223092 C163.32681,84.1878669 167.201566,84.9706458 171.311155,84.9706458 C177.495108,84.9706458 182.935421,82.778865 187.671233,78.4735812 L187.671233,94.3248532 L12.3679061,94.3248532 L12.3679061,12.3287671 L183.561644,12.3287671 L183.561644,0.195694716 L0.234833659,0.195694716 L0.234833659,106.457926 L199.608611,106.457926 L199.608611,84.4618395 L199.608611,75.146771 L199.608611,51.7808219 L175.616438,51.7808219 Z" id="Shape"></path>
                </g>
                <path d="M0.024100435,111.932053 L2.25414567,111.932053 L5.55617757,121.650355 L8.8347353,111.932053 L11.0413064,111.932053 L11.0413064,123.426567 L9.56243428,123.426567 L9.56243428,116.642535 C9.56243428,116.407792 9.5676507,116.019168 9.57808372,115.476651 C9.58851673,114.934135 9.59373316,114.352503 9.59373316,113.731739 L6.31517542,123.426567 L4.77370556,123.426567 L1.47167366,113.731739 L1.47167366,114.083851 C1.47167366,114.365542 1.47819419,114.794594 1.49123546,115.371018 C1.50427673,115.947442 1.51079726,116.371276 1.51079726,116.642535 L1.51079726,123.426567 L0.024100435,123.426567 L0.024100435,111.932053 Z M19.3120356,118.716085 L17.567123,113.637842 L15.7126643,118.716085 L19.3120356,118.716085 Z M16.7533521,111.932053 L18.5139141,111.932053 L22.6844899,123.426567 L20.9787009,123.426567 L19.8128176,119.98369 L15.2666553,119.98369 L14.0225248,123.426567 L12.4262818,123.426567 L16.7533521,111.932053 Z M24.1007643,111.932053 L25.9395735,111.932053 L31.7455159,121.24347 L31.7455159,111.932053 L33.224388,111.932053 L33.224388,123.426567 L31.4794754,123.426567 L25.5874611,114.122975 L25.5874611,123.426567 L24.1007643,123.426567 L24.1007643,111.932053 Z M40.6422226,111.634714 C41.7220394,111.634714 42.65578,111.843371 43.4434724,112.260691 C44.5858873,112.86059 45.2848886,113.9117 45.5404974,115.414054 L43.9990276,115.414054 C43.8112334,114.574196 43.4226095,113.96257 42.8331443,113.579157 C42.2436791,113.195743 41.5003381,113.00404 40.603099,113.00404 C39.5389318,113.00404 38.6430103,113.403096 37.9153077,114.201222 C37.1876051,114.999347 36.8237592,116.188693 36.8237592,117.769294 C36.8237592,119.136019 37.1237038,120.248422 37.723602,121.106537 C38.3235002,121.964653 39.3015805,122.393704 40.6578721,122.393704 C41.6959568,122.393704 42.5553633,122.092455 43.2361174,121.489949 C43.9168714,120.887442 44.265068,119.913274 44.2807175,118.567416 L40.6813462,118.567416 L40.6813462,117.276337 L45.7282907,117.276337 L45.7282907,123.426567 L44.7267265,123.426567 L44.35114,121.947695 C43.8242729,122.526727 43.3574026,122.928392 42.9505151,123.152702 C42.2671528,123.538723 41.3986175,123.731731 40.3448833,123.731731 C38.9833752,123.731731 37.8122871,123.290943 36.8315839,122.409353 C35.7622002,121.303454 35.2275163,119.785474 35.2275163,117.855366 C35.2275163,115.930475 35.7491591,114.399454 36.7924603,113.262256 C37.7835965,112.177222 39.0668378,111.634714 40.6422226,111.634714 Z M53.0991771,111.619064 C55.128398,111.619064 56.6307292,112.271118 57.6062159,113.575244 C58.3678258,114.592463 58.748625,115.893962 58.748625,117.47978 C58.748625,119.19601 58.3130533,120.622703 57.4418968,121.759902 C56.4194616,123.095327 54.9614699,123.76303 53.0678782,123.76303 C51.2994826,123.76303 49.9093046,123.17879 48.8973024,122.010293 C47.9948468,120.883527 47.5436258,119.459442 47.5436258,117.737995 C47.5436258,116.183477 47.9296415,114.853287 48.7016844,113.747388 C49.6928205,112.328498 51.1586368,111.619064 53.0991771,111.619064 Z M53.2556715,122.37023 C54.6276126,122.37023 55.620038,121.878581 56.2329775,120.89527 C56.845917,119.911959 57.1523821,118.781298 57.1523821,117.503254 C57.1523821,116.152179 56.7989691,115.064553 56.0921325,114.240346 C55.385296,113.416138 54.4189527,113.00404 53.1930737,113.00404 C52.0037103,113.00404 51.0334547,113.412225 50.2822778,114.228608 C49.531101,115.044992 49.1555181,116.248682 49.1555181,117.839717 C49.1555181,119.112544 49.4776326,120.185824 50.1218711,121.059589 C50.7661096,121.933354 51.8106993,122.37023 53.2556715,122.37023 Z M61.6202973,119.71765 C61.6568129,120.369713 61.8106975,120.89918 62.0819558,121.306068 C62.5983899,122.067678 63.5086566,122.448477 64.8127831,122.448477 C65.3970318,122.448477 65.9291075,122.365014 66.409026,122.198086 C67.3375641,121.874663 67.8018262,121.295639 67.8018262,120.460998 C67.8018262,119.835017 67.6062102,119.389013 67.2149722,119.122971 C66.8185177,118.862146 66.1977628,118.635231 65.3526888,118.44222 L63.7955695,118.090108 C62.7783508,117.860582 62.0584838,117.607585 61.6359468,117.33111 C60.9056359,116.851191 60.5404859,116.133933 60.5404859,115.179312 C60.5404859,114.146444 60.8978112,113.298774 61.6124726,112.636278 C62.3271339,111.973782 63.339121,111.642538 64.648464,111.642538 C65.8534769,111.642538 66.8772009,111.933354 67.7196667,112.514995 C68.5621324,113.096635 68.983359,114.026463 68.983359,115.304507 L67.5201363,115.304507 C67.4418887,114.68896 67.274963,114.216873 67.0193542,113.888233 C66.5446521,113.288335 65.738714,112.98839 64.6015157,112.98839 C63.6834106,112.98839 63.0235325,113.181398 62.6218615,113.56742 C62.2201905,113.953441 62.019358,114.402054 62.019358,114.913271 C62.019358,115.476654 62.2540973,115.888752 62.7235829,116.149577 C63.0313567,116.316505 63.7277498,116.525163 64.8127831,116.775555 L66.4246755,117.143317 C67.2019349,117.320678 67.8018241,117.563242 68.2243611,117.871016 C68.954672,118.408316 69.3198219,119.188172 69.3198219,120.210607 C69.3198219,121.483434 68.8568639,122.393701 67.9309341,122.941434 C67.0050043,123.489167 65.929116,123.76303 64.703237,123.76303 C63.2739144,123.76303 62.1549906,123.39788 61.3464321,122.667569 C60.5378737,121.942475 60.1414251,120.959178 60.1570746,119.71765 L61.6202973,119.71765 Z M71.6437638,111.932053 L73.2165325,111.932053 L73.2165325,123.426567 L71.6437638,123.426567 L71.6437638,111.932053 Z M75.7439172,111.932053 L77.5827264,111.932053 L83.3886687,121.24347 L83.3886687,111.932053 L84.8675408,111.932053 L84.8675408,123.426567 L83.1226282,123.426567 L77.230614,114.122975 L77.230614,123.426567 L75.7439172,123.426567 L75.7439172,111.932053 Z M92.2853755,111.634714 C93.3651923,111.634714 94.2989329,111.843371 95.0866253,112.260691 C96.2290402,112.86059 96.9280415,113.9117 97.1836503,115.414054 L95.6421804,115.414054 C95.4543862,114.574196 95.0657623,113.96257 94.4762971,113.579157 C93.886832,113.195743 93.143491,113.00404 92.2462519,113.00404 C91.1820847,113.00404 90.2861632,113.403096 89.5584605,114.201222 C88.8307579,114.999347 88.4669121,116.188693 88.4669121,117.769294 C88.4669121,119.136019 88.7668567,120.248422 89.3667549,121.106537 C89.9666531,121.964653 90.9447333,122.393704 92.301025,122.393704 C93.3391097,122.393704 94.1985162,122.092455 94.8792702,121.489949 C95.5600243,120.887442 95.9082209,119.913274 95.9238704,118.567416 L92.3244991,118.567416 L92.3244991,117.276337 L97.3714436,117.276337 L97.3714436,123.426567 L96.3698794,123.426567 L95.9942929,121.947695 C95.4674257,122.526727 95.0005554,122.928392 94.593668,123.152702 C93.9103056,123.538723 93.0417704,123.731731 91.9880361,123.731731 C90.626528,123.731731 89.45544,123.290943 88.4747368,122.409353 C87.405353,121.303454 86.8706692,119.785474 86.8706692,117.855366 C86.8706692,115.930475 87.392312,114.399454 88.4356132,113.262256 C89.4267494,112.177222 90.7099906,111.634714 92.2853755,111.634714 Z M104.233723,111.932053 L105.790842,111.932053 L105.790842,122.057241 L111.612434,122.057241 L111.612434,123.426567 L104.233723,123.426567 L104.233723,111.932053 Z M119.045918,118.716085 L117.301006,113.637842 L115.446547,118.716085 L119.045918,118.716085 Z M116.487235,111.932053 L118.247797,111.932053 L122.418373,123.426567 L120.712584,123.426567 L119.5467,119.98369 L115.000538,119.98369 L113.756408,123.426567 L112.160165,123.426567 L116.487235,111.932053 Z M124.006791,111.932053 L126.174238,121.282594 L128.772045,111.932053 L130.462185,111.932053 L133.059992,121.282594 L135.22744,111.932053 L136.933229,111.932053 L133.912887,123.426567 L132.27752,123.426567 L129.62494,113.896058 L126.95671,123.426567 L125.321344,123.426567 L122.316651,111.932053 L124.006791,111.932053 Z M147.79394,111.634714 C148.873757,111.634714 149.807498,111.843371 150.59519,112.260691 C151.737605,112.86059 152.436606,113.9117 152.692215,115.414054 L151.150745,115.414054 C150.962951,114.574196 150.574327,113.96257 149.984862,113.579157 C149.395397,113.195743 148.652056,113.00404 147.754817,113.00404 C146.690649,113.00404 145.794728,113.403096 145.067025,114.201222 C144.339323,114.999347 143.975477,116.188693 143.975477,117.769294 C143.975477,119.136019 144.275421,120.248422 144.87532,121.106537 C145.475218,121.964653 146.453298,122.393704 147.80959,122.393704 C148.847674,122.393704 149.707081,122.092455 150.387835,121.489949 C151.068589,120.887442 151.416785,119.913274 151.432435,118.567416 L147.833064,118.567416 L147.833064,117.276337 L152.880008,117.276337 L152.880008,123.426567 L151.878444,123.426567 L151.502857,121.947695 C150.97599,122.526727 150.50912,122.928392 150.102233,123.152702 C149.41887,123.538723 148.550335,123.731731 147.496601,123.731731 C146.135093,123.731731 144.964005,123.290943 143.983301,122.409353 C142.913918,121.303454 142.379234,119.785474 142.379234,117.855366 C142.379234,115.930475 142.900877,114.399454 143.944178,113.262256 C144.935314,112.177222 146.218555,111.634714 147.79394,111.634714 Z M160.634306,117.19809 C161.364617,117.19809 161.942336,117.05203 162.367481,116.759905 C162.792627,116.467781 163.005196,115.940922 163.005196,115.179312 C163.005196,114.36032 162.70786,113.802163 162.113178,113.504822 C161.794971,113.348327 161.369832,113.27008 160.837749,113.27008 L157.034935,113.27008 L157.034935,117.19809 L160.634306,117.19809 Z M155.477815,111.932053 L160.798625,111.932053 C161.674998,111.932053 162.397473,112.059856 162.966072,112.315464 C164.045889,112.805816 164.58579,113.710866 164.58579,115.030642 C164.58579,115.719221 164.443642,116.282595 164.159342,116.720782 C163.875043,117.158968 163.47729,117.511077 162.966072,117.777119 C163.414692,117.959697 163.752456,118.199652 163.979374,118.496993 C164.206292,118.794334 164.33279,119.276854 164.358873,119.944566 L164.413646,121.486036 C164.429295,121.924223 164.46581,122.25025 164.523192,122.464126 C164.617089,122.829282 164.784015,123.064021 165.023974,123.168351 L165.023974,123.426567 L163.114742,123.426567 C163.062577,123.327453 163.020846,123.199651 162.989547,123.043156 C162.958248,122.88666 162.932165,122.584108 162.911299,122.135488 L162.817403,120.218432 C162.780887,119.467255 162.501808,118.96387 161.980158,118.708261 C161.682817,118.567415 161.215947,118.496993 160.579533,118.496993 L157.034935,118.496993 L157.034935,123.426567 L155.477815,123.426567 L155.477815,111.932053 Z M171.823656,111.619064 C173.852877,111.619064 175.355208,112.271118 176.330694,113.575244 C177.092304,114.592463 177.473104,115.893962 177.473104,117.47978 C177.473104,119.19601 177.037532,120.622703 176.166375,121.759902 C175.14394,123.095327 173.685949,123.76303 171.792357,123.76303 C170.023961,123.76303 168.633783,123.17879 167.621781,122.010293 C166.719325,120.883527 166.268104,119.459442 166.268104,117.737995 C166.268104,116.183477 166.65412,114.853287 167.426163,113.747388 C168.417299,112.328498 169.883115,111.619064 171.823656,111.619064 Z M171.98015,122.37023 C173.352091,122.37023 174.344517,121.878581 174.957456,120.89527 C175.570396,119.911959 175.876861,118.781298 175.876861,117.503254 C175.876861,116.152179 175.523448,115.064553 174.816611,114.240346 C174.109775,113.416138 173.143431,113.00404 171.917552,113.00404 C170.728189,113.00404 169.757933,113.412225 169.006756,114.228608 C168.25558,115.044992 167.879997,116.248682 167.879997,117.839717 C167.879997,119.112544 168.202111,120.185824 168.84635,121.059589 C169.490588,121.933354 170.535178,122.37023 171.98015,122.37023 Z M181.017702,111.932053 L181.017702,119.036899 C181.017702,119.87154 181.174195,120.565325 181.487185,121.118275 C181.951454,121.952916 182.733918,122.37023 183.834601,122.37023 C185.154377,122.37023 186.051603,121.919009 186.526305,121.016553 C186.781914,120.526202 186.909716,119.866323 186.909716,119.036899 L186.909716,111.932053 L188.49031,111.932053 L188.49031,118.387447 C188.49031,119.80112 188.29991,120.888746 187.919105,121.650355 C187.220093,123.037946 185.900337,123.731731 183.959797,123.731731 C182.019256,123.731731 180.702108,123.037946 180.008313,121.650355 C179.627508,120.888746 179.437108,119.80112 179.437108,118.387447 L179.437108,111.932053 L181.017702,111.932053 Z M191.048993,111.932053 L196.221133,111.932053 C197.243568,111.932053 198.067764,112.220261 198.693745,112.796685 C199.319725,113.373109 199.632711,114.182959 199.632711,115.22626 C199.632711,116.123499 199.353632,116.904659 198.795466,117.569764 C198.2373,118.234868 197.379197,118.567416 196.221133,118.567416 L192.606112,118.567416 L192.606112,123.426567 L191.048993,123.426567 L191.048993,111.932053 Z M198.059942,115.234085 C198.059942,114.389011 197.746957,113.815204 197.120976,113.512647 C196.776686,113.350935 196.3046,113.27008 195.704701,113.27008 L192.606112,113.27008 L192.606112,117.252863 L195.704701,117.252863 C196.403713,117.252863 196.971,117.104195 197.406578,116.806854 C197.842156,116.509513 198.059942,115.985262 198.059942,115.234085 Z" id="MANGOSING-LAW-GROUP"></path>
            </g>
        </g>
    </g>
</svg>

<svg width="200" height="124" viewBox="0 0 200 124" xmlns="http://www.w3.org/2000/svg"><title>Group 2</title><desc>Created with Sketch.</desc><g fill="#fff"><g fill-rule="nonzero"><path d="M85.284 84.462v-62.544h-15.616l-16.282 32.681-16.204-32.681h-15.656v62.544h14.442v-37.417l13.542 27.202h7.75l13.581-27.202v37.417zM97.26 21.918v62.544h44.736v-12.681h-30.294v-49.863zM175.616 51.781v10.489h12.172v1.957c-4.54 5.245-9.589 7.828-15.225 7.828-2.466 0-4.697-.47-6.732-1.409-2.035-.939-3.757-2.231-5.245-3.914-1.487-1.683-2.622-3.64-3.444-5.949-.822-2.309-1.213-4.775-1.213-7.476 0-2.661.391-5.127 1.135-7.397.744-2.309 1.84-4.305 3.249-6.027 1.409-1.722 3.092-3.092 5.049-4.07 1.957-.978 4.149-1.448 6.575-1.448 3.092 0 5.988.783 8.689 2.348 2.661 1.566 4.697 3.757 6.106 6.575l10.763-8.102c-2.192-4.227-5.44-7.554-9.785-9.98-4.344-2.427-9.432-3.64-15.225-3.64-4.384 0-8.532.822-12.329 2.466-3.836 1.644-7.123 3.875-9.902 6.693-2.779 2.818-4.971 6.145-6.575 9.941-1.605 3.836-2.387 7.867-2.387 12.133 0 4.736.783 9.119 2.387 13.072 1.566 3.953 3.757 7.358 6.458 10.176 2.74 2.818 5.91 5.01 9.55 6.575 3.64 1.566 7.515 2.348 11.624 2.348 6.184 0 11.624-2.192 16.36-6.497v15.851h-175.303v-81.996h171.194v-12.133h-183.327v106.262h199.374v-54.677h-23.992z"/></g><path d="M.024 111.932h2.23l3.302 9.718 3.279-9.718h2.207v11.495h-1.479v-6.784c0-.235.005-.623.016-1.166.01-.543.016-1.124.016-1.745l-3.279 9.695h-1.541l-3.302-9.695v.352c0 .282.007.711.02 1.287.013.576.02 1 .02 1.272v6.784h-1.487v-11.495zm19.288 6.784l-1.745-5.078-1.854 5.078h3.599zm-2.559-6.784h1.761l4.171 11.495h-1.706l-1.166-3.443h-4.546l-1.244 3.443h-1.596l4.327-11.495zm7.347 0h1.839l5.806 9.311v-9.311h1.479v11.495h-1.745l-5.892-9.304v9.304h-1.487v-11.495zm16.541-.297c1.08 0 2.014.209 2.801.626 1.142.6 1.841 1.651 2.097 3.153h-1.541c-.188-.84-.576-1.451-1.166-1.835-.589-.383-1.333-.575-2.23-.575-1.064 0-1.96.399-2.688 1.197-.728.798-1.092 1.987-1.092 3.568 0 1.367.3 2.479.9 3.337.6.858 1.578 1.287 2.934 1.287 1.038 0 1.897-.301 2.578-.904.681-.603 1.029-1.577 1.045-2.923h-3.599v-1.291h5.047v6.15h-1.002l-.376-1.479c-.527.579-.994.981-1.401 1.205-.683.386-1.552.579-2.606.579-1.362 0-2.533-.441-3.513-1.322-1.069-1.106-1.604-2.624-1.604-4.554 0-1.925.522-3.456 1.565-4.593.991-1.085 2.274-1.628 3.85-1.628zm12.457-.016c2.029 0 3.532.652 4.507 1.956.762 1.017 1.142 2.319 1.142 3.905 0 1.716-.436 3.143-1.307 4.28-1.022 1.335-2.48 2.003-4.374 2.003-1.768 0-3.159-.584-4.171-1.753-.902-1.127-1.354-2.551-1.354-4.272 0-1.555.386-2.885 1.158-3.991.991-1.419 2.457-2.128 4.397-2.128zm.156 10.751c1.372 0 2.364-.492 2.977-1.475.613-.983.919-2.114.919-3.392 0-1.351-.353-2.439-1.06-3.263-.707-.824-1.673-1.236-2.899-1.236-1.189 0-2.16.408-2.911 1.225-.751.816-1.127 2.02-1.127 3.611 0 1.273.322 2.346.966 3.22.644.874 1.689 1.311 3.134 1.311zm8.365-2.653c.037.652.19 1.182.462 1.588.516.762 1.427 1.142 2.731 1.142.584 0 1.116-.083 1.596-.25.929-.323 1.393-.902 1.393-1.737 0-.626-.196-1.072-.587-1.338-.396-.261-1.017-.488-1.862-.681l-1.557-.352c-1.017-.23-1.737-.483-2.16-.759-.73-.48-1.095-1.197-1.095-2.152 0-1.033.357-1.881 1.072-2.543.715-.662 1.727-.994 3.036-.994 1.205 0 2.229.291 3.071.872.842.582 1.264 1.511 1.264 2.79h-1.463c-.078-.616-.245-1.088-.501-1.416-.475-.6-1.281-.9-2.418-.9-.918 0-1.578.193-1.98.579-.402.386-.603.835-.603 1.346 0 .563.235.975.704 1.236.308.167 1.004.376 2.089.626l1.612.368c.777.177 1.377.42 1.8.728.73.537 1.095 1.317 1.095 2.34 0 1.273-.463 2.183-1.389 2.731-.926.548-2.002.822-3.228.822-1.429 0-2.548-.365-3.357-1.095-.809-.725-1.205-1.708-1.189-2.95h1.463zm10.023-7.786h1.573v11.495h-1.573v-11.495zm4.1 0h1.839l5.806 9.311v-9.311h1.479v11.495h-1.745l-5.892-9.304v9.304h-1.487v-11.495zm16.541-.297c1.08 0 2.014.209 2.801.626 1.142.6 1.841 1.651 2.097 3.153h-1.541c-.188-.84-.576-1.451-1.166-1.835-.589-.383-1.333-.575-2.23-.575-1.064 0-1.96.399-2.688 1.197-.728.798-1.092 1.987-1.092 3.568 0 1.367.3 2.479.9 3.337.6.858 1.578 1.287 2.934 1.287 1.038 0 1.897-.301 2.578-.904.681-.603 1.029-1.577 1.045-2.923h-3.599v-1.291h5.047v6.15h-1.002l-.376-1.479c-.527.579-.994.981-1.401 1.205-.683.386-1.552.579-2.606.579-1.362 0-2.533-.441-3.513-1.322-1.069-1.106-1.604-2.624-1.604-4.554 0-1.925.522-3.456 1.565-4.593.991-1.085 2.274-1.628 3.85-1.628zm11.948.297h1.557v10.125h5.822v1.369h-7.379v-11.495zm14.812 6.784l-1.745-5.078-1.854 5.078h3.599zm-2.559-6.784h1.761l4.171 11.495h-1.706l-1.166-3.443h-4.546l-1.244 3.443h-1.596l4.327-11.495zm7.52 0l2.167 9.351 2.598-9.351h1.69l2.598 9.351 2.167-9.351h1.706l-3.02 11.495h-1.635l-2.653-9.531-2.668 9.531h-1.635l-3.005-11.495h1.69zm23.787-.297c1.08 0 2.014.209 2.801.626 1.142.6 1.841 1.651 2.097 3.153h-1.541c-.188-.84-.576-1.451-1.166-1.835-.589-.383-1.333-.575-2.23-.575-1.064 0-1.96.399-2.688 1.197-.728.798-1.092 1.987-1.092 3.568 0 1.367.3 2.479.9 3.337.6.858 1.578 1.287 2.934 1.287 1.038 0 1.897-.301 2.578-.904.681-.603 1.029-1.577 1.045-2.923h-3.599v-1.291h5.047v6.15h-1.002l-.376-1.479c-.527.579-.994.981-1.401 1.205-.683.386-1.552.579-2.606.579-1.362 0-2.533-.441-3.513-1.322-1.069-1.106-1.604-2.624-1.604-4.554 0-1.925.522-3.456 1.565-4.593.991-1.085 2.274-1.628 3.85-1.628zm12.84 5.563c.73 0 1.308-.146 1.733-.438.425-.292.638-.819.638-1.581 0-.819-.297-1.377-.892-1.674-.318-.156-.743-.235-1.275-.235h-3.803v3.928h3.599zm-5.156-5.266h5.321c.876 0 1.599.128 2.167.383 1.08.49 1.62 1.395 1.62 2.715 0 .689-.142 1.252-.426 1.69-.284.438-.682.79-1.193 1.056.449.183.786.423 1.013.72.227.297.353.78.379 1.448l.055 1.541c.016.438.052.764.11.978.094.365.261.6.501.704v.258h-1.909c-.052-.099-.094-.227-.125-.383s-.057-.459-.078-.908l-.094-1.917c-.037-.751-.316-1.255-.837-1.51-.297-.141-.764-.211-1.401-.211h-3.545v4.93h-1.557v-11.495zm16.346-.313c2.029 0 3.532.652 4.507 1.956.762 1.017 1.142 2.319 1.142 3.905 0 1.716-.436 3.143-1.307 4.28-1.022 1.335-2.48 2.003-4.374 2.003-1.768 0-3.159-.584-4.171-1.753-.902-1.127-1.354-2.551-1.354-4.272 0-1.555.386-2.885 1.158-3.991.991-1.419 2.457-2.128 4.397-2.128zm.156 10.751c1.372 0 2.364-.492 2.977-1.475.613-.983.919-2.114.919-3.392 0-1.351-.353-2.439-1.06-3.263-.707-.824-1.673-1.236-2.899-1.236-1.189 0-2.16.408-2.911 1.225-.751.816-1.127 2.02-1.127 3.611 0 1.273.322 2.346.966 3.22.644.874 1.689 1.311 3.134 1.311zm9.038-10.438v7.105c0 .835.156 1.528.469 2.081.464.835 1.247 1.252 2.347 1.252 1.32 0 2.217-.451 2.692-1.354.256-.49.383-1.15.383-1.98v-7.105h1.581v6.455c0 1.414-.19 2.501-.571 3.263-.699 1.388-2.019 2.081-3.959 2.081-1.941 0-3.258-.694-3.951-2.081-.381-.762-.571-1.849-.571-3.263v-6.455h1.581zm10.031 0h5.172c1.022 0 1.847.288 2.473.865.626.576.939 1.386.939 2.43 0 .897-.279 1.678-.837 2.344-.558.665-1.416.998-2.574.998h-3.615v4.859h-1.557v-11.495zm7.011 3.302c0-.845-.313-1.419-.939-1.721-.344-.162-.816-.243-1.416-.243h-3.099v3.983h3.099c.699 0 1.266-.149 1.702-.446.436-.297.653-.822.653-1.573z"/></g></svg>
